samples/images/stripe-payments-demo.svg

<svg height="123" viewBox="0 0 204 123" width="204" xmlns="http://www.w3.org/2000/svg"><g fill="none" fill-rule="evenodd" transform="translate(1)"><rect fill="#fff" height="123" opacity=".8" rx="4" width="202"/><path d="m0 35.5h202" opacity=".3" stroke="#7dabf8" stroke-linecap="square"/><text style="opacity:.5;font-family:-apple-system, BlinkMacSystemFont, 'Segoe UI', Roboto, sans-serif;font-size:13;font-weight:500;letter-spacing:-.078;fill:#697386"><tspan x="13" y="23">Cards</tspan></text><text fill="#09825d" font-family="-apple-system, BlinkMacSystemFont, 'Segoe UI', Roboto, sans-serif" font-size="13" font-weight="500" letter-spacing="-.078"><tspan x="67.062852" y="23">WeChat Pay</tspan></text><path d="m66 34h79c.552285 0 1 .4477153 1 1s-.447715 1-1 1h-79c-.5522847 0-1-.4477153-1-1s.4477153-1 1-1z" fill="#09825d"/><path d="m23.1277704 62h155.7444596c1.783037 0 2.42961.1856512 3.081461.5342654.651852.3486142 1.163429.8601913 1.512044 1.5120432.348614.6518518.534265 1.2984243.534265 3.0814618v17.7444592c0 1.7830375-.185651 2.42961-.534265 3.0814618-.348615.6518519-.860192 1.163429-1.512044 1.5120432-.651851.3486142-1.298424.5342654-3.081461.5342654h-155.7444596c-1.7830375 0-2.42961-.1856512-3.0814618-.5342654-.6518519-.3486142-1.163429-.8601913-1.5120432-1.5120432-.3486142-.6518518-.5342654-1.2984243-.5342654-3.0814618v-17.7444592c0-1.7830375.1856512-2.42961.5342654-3.0814618.3486142-.6518519.8601913-1.163429 1.5120432-1.5120432.6518518-.3486142 1.2984243-.5342654 3.0814618-.5342654z" fill="#04961c"/><text style="opacity:.7;font-family:-apple-system, BlinkMacSystemFont, 'Segoe UI', Roboto, sans-serif;font-size:14;font-weight:500;letter-spacing:-.154;fill:#fff"><tspan x="55" y="81">Open WeChat</tspan></text></g></svg>

<?xml version="1.0" encoding="UTF-8"?>
<svg width="204px" height="123px" viewBox="0 0 204 123" version="1.1" xmlns="http://www.w3.org/2000/svg" xmlns:xlink="http://www.w3.org/1999/xlink">
    <!-- Generator: Sketch 57.1 (83088) - https://sketch.com -->
    <title>CardA</title>
    <desc>Created with Sketch.</desc>
    <g id="Recipes-v0" stroke="none" stroke-width="1" fill="none" fill-rule="evenodd">
        <g id="recipes-home-v0" transform="translate(-824.000000, -861.000000)">
            <g id="Group-11" transform="translate(775.000000, 798.000000)">
                <g id="CardA" transform="translate(50.000000, 63.000000)">
                    <rect id="Rectangle" fill="#FFFFFF" opacity="0.800000012" x="0" y="0" width="202" height="123" rx="4"></rect>
                    <path d="M0,35.5 L202,35.5" id="Line" stroke="#7DABF8" opacity="0.300000012" stroke-linecap="square"></path>
                    <text id="Cards" opacity="0.5" font-family="Helvetica" font-size="13" font-weight="normal" fill="#697386">
                        <tspan x="13" y="24">Cards</tspan>
                    </text>
                    <text id="WeChat-Pay" font-family="Helvetica" font-size="13" font-weight="normal" fill="#09825D">
                        <tspan x="67" y="24">WeChat Pay</tspan>
                    </text>
                    <path d="M68,34 L147,34 C147.552285,34 148,34.4477153 148,35 C148,35.5522847 147.552285,36 147,36 L68,36 C67.4477153,36 67,35.5522847 67,35 C67,34.4477153 67.4477153,34 68,34 Z" id="Rectangle" fill="#09825D"></path>
                    <path d="M23.1277704,62 L178.87223,62 C180.655267,62 181.30184,62.1856512 181.953691,62.5342654 C182.605543,62.8828796 183.11712,63.3944567 183.465735,64.0463086 C183.814349,64.6981604 184,65.3447329 184,67.1277704 L184,84.8722296 C184,86.6552671 183.814349,87.3018396 183.465735,87.9536914 C183.11712,88.6055433 182.605543,89.1171204 181.953691,89.4657346 C181.30184,89.8143488 180.655267,90 178.87223,90 L23.1277704,90 C21.3447329,90 20.6981604,89.8143488 20.0463086,89.4657346 C19.3944567,89.1171204 18.8828796,88.6055433 18.5342654,87.9536914 C18.1856512,87.3018396 18,86.6552671 18,84.8722296 L18,67.1277704 C18,65.3447329 18.1856512,64.6981604 18.5342654,64.0463086 C18.8828796,63.3944567 19.3944567,62.8828796 20.0463086,62.5342654 C20.6981604,62.1856512 21.3447329,62 23.1277704,62 Z" id="Rectangle" fill="#1EA672"></path>
                    <text id="Open-WeChat" opacity="0.699999988" font-family="Helvetica" font-size="16" font-weight="normal" fill="#F7FAFC">
                        <tspan x="55" y="82">Open WeChat</tspan>
                    </text>
                </g>
            </g>
        </g>
    </g>
</svg>
